X:82
T:Canyon Moonrise
M:3/4
L:1/8
F:http://blackrosetheband.googlepages.com/ABCTUNES.ABC May 2009
C:John McGann
R:W
D:The Celtic Fiddle Festival
K:G
T:A Part
B,|"E"E4 ^GA|"G"B6|"C"B4 AB|"F"G2 E2 D2|
"C"E2 G2 E2|"B7"D2 B,2 D2|"C"E6-|"B7"E4 zB,|
"E"E4 ^GA|"G"B6|"C"B4 AB|"F"G2 E2 D2|
"C"E2 G2 E2|"B7"D2 B,2 zG|"Em"E6-|E4 z2||
T:B Part
"C"e2 g2 a2|"D"b2 a2 f2|"Em"a2 g2 f2|"C"e4 zd|
"G"e2 d2 B2|"Em"A2 G2 g2|"C"e6-|e4 ga|
"D"b2 a2 f2|"Em"a2 g2 f2|"C"g2 f2 d2|"G"B4 AB|
"C"e2 d2 B2|"F"A2 G2 g2|"F#m7"f6-|"B7"f4 gf|
"Am"e2 d2 A2|"G"B4 gf|"C"e2 d2 B2|"F"A2 G2 D2|
"C"E2 G2 E2|"B7"D2 B,2 zG|"Em"E6-|E6||
